build/assets/fonts/0d91ff8fa73e4822b3df8578f6f90708.svg

<svg width="100" height="60" viewBox="0 0 100 60" version="1.1" xmlns="http://www.w3.org/2000/svg" xmlns:xlink="http://www.w3.org/1999/xlink"><title>Maestro-dark</title><desc>Created with Sketch.</desc><g id="Dark-Payment-badges" stroke="none" stroke-width="1" fill="none" fill-rule="evenodd" transform="translate(-450.000000, -164.000000)"><g id="Maestro-dark" transform="translate(450.000000, 164.000000)"><rect id="Rectangle" fill="#006" x="0" y="0" width="100" height="60" rx="4"/><path d="M83.6564898,29.983733 C83.6564898,41.0390693 74.7306345,50 63.7173316,50 C52.7062346,50 43.7791187,41.0390693 43.7791187,29.983733 C43.7791187,18.9280804 52.7062346,9.96683339 63.7173316,9.96683339 C74.7306345,9.96683339 83.6564898,18.9280804 83.6564898,29.983733" id="Fill-356" fill="#C00"/><path d="M48.3148423,42.6950448 C47.7643033,42.0247464 47.2572527,41.3164887 46.7962116,40.5750166 L53.8627764,40.5750166 C54.2869467,39.8955447 54.6698345,39.1876034 55.0117549,38.4553048 L45.6478633,38.4553048 C45.3286326,37.7695064 45.045012,37.0621977 44.8036194,36.3362256 L55.8544232,36.3362256 C56.5199862,34.3401979 56.8795541,32.204986 56.8795541,29.983733 C56.8795541,28.5292583 56.7251384,27.110845 56.4320638,25.744942 L44.2275544,25.744942 C44.3819701,25.0227659 44.5767229,24.3160899 44.8061404,23.6252302 L55.8531627,23.6252302 C55.6108246,22.8992582 55.3287797,22.1922658 55.0098641,21.5064674 L45.6497541,21.5064674 C45.9916745,20.7741688 46.3755077,20.0674927 46.7984176,19.3864392 L53.8605704,19.3864392 C53.3998445,18.6468651 52.8915334,17.9398727 52.3419397,17.2686254 L48.3173634,17.2686254 C48.9366017,16.5141838 49.6094128,15.8059261 50.3298091,15.1501789 C46.7908543,11.929014 42.0937821,9.96683339 36.9416564,9.96683339 C25.9289838,9.96683339 17.0018679,18.9280804 17.0018679,29.983733 C17.0018679,41.0390693 25.9289838,50 36.9416564,50 C42.0940973,50 46.7914846,48.0378194 50.3298091,44.8179199 C51.0511508,44.1609072 51.7249073,43.4510679 52.3441456,42.6950448 L48.3148423,42.6950448" id="Fill-357" fill="#06C"/><path d="M50.0455583,35.3929365 C49.1934359,35.6194271 48.3693605,35.7301418 47.4983302,35.7282438 C44.7191634,35.7257132 43.271753,34.4550249 43.271753,32.0249956 C43.271753,29.1859546 45.1143415,27.0978755 47.61556,27.0978755 C49.6614099,27.0978755 50.9673252,28.2686043 50.9673252,30.1029886 C50.9673252,30.711603 50.8790877,31.3047174 50.6625906,32.1429858 L45.7203442,32.1429858 C45.5444994,33.3298473 46.4076514,33.850839 47.8771212,33.850839 C48.7572905,33.850839 49.5530038,33.6920425 50.4347487,33.3361738 L50.0455583,35.3929365 L50.0455583,35.3929365 Z M48.7166382,30.4686634 C48.7166382,30.2896219 48.991435,29.015454 47.5610418,28.9879335 C46.771316,28.9879335 46.2050202,29.5149354 45.9759178,30.4686634 L48.7166382,30.4686634 L48.7166382,30.4686634 Z" id="Fill-359" fill="#006"/><path d="M51.7198652,29.9119266 C51.7198652,30.9605529 52.3079052,31.6852596 53.6450188,32.2245984 C54.6669983,32.6446815 54.8277167,32.7664677 54.8277167,33.1419486 C54.8277167,33.6623077 54.3764448,33.9008188 53.3736884,33.8944922 C52.6208333,33.8891146 51.933526,33.7970633 51.1226863,33.5715216 L50.7637486,35.4843552 C51.4847752,35.6523252 52.4954099,35.7073662 53.3913359,35.7282438 C56.0602057,35.7282438 57.2923796,34.8510671 57.2923796,32.954999 C57.2923796,31.814954 56.7783961,31.1446556 55.5109272,30.6448579 C54.4514467,30.2197135 54.3272839,30.1282948 54.3272839,29.743324 C54.3272839,29.291608 54.7470423,29.0632195 55.5654453,29.0632195 C56.0617814,29.0632195 56.7408951,29.1087706 57.3856593,29.1872199 L57.747118,27.2639476 C57.0903787,27.1725289 56.0942402,27.0991409 55.5172298,27.0991409 C52.6898476,27.0991409 51.7113566,28.3767884 51.7198652,29.9119266" id="Fill-360" fill="#006"/><path d="M41.916992,35.5912739 L39.8437254,35.5912739 L39.8932014,34.7194748 C39.2610426,35.4071712 38.4186895,35.7276111 37.2760136,35.7276111 C35.9234585,35.7276111 34.9969645,34.7991894 34.9969645,33.4639702 C34.9969645,31.4344118 36.6076144,30.263683 39.3770119,30.263683 C39.6615779,30.263683 40.0236669,30.2851933 40.395525,30.3272649 C40.4724177,30.0555394 40.4932166,29.9384982 40.4932166,29.7910895 C40.4932166,29.235618 40.0573862,29.030954 38.8920207,29.030954 C37.7430422,29.0353826 36.9678125,29.2065159 36.2483616,29.4004248 L36.6025722,27.53852 C37.8467213,27.220927 38.6610275,27.0978755 39.5827944,27.0978755 C41.7272813,27.0978755 42.8598729,27.9424705 42.8598729,29.5285375 C42.8778355,29.9521003 42.7312982,30.8017564 42.6572417,31.1737578 C42.5734161,31.7143618 41.9790733,34.8510671 41.916992,35.5912739 L41.916992,35.5912739 Z M40.0970931,31.888342 C39.8345865,31.8624032 39.7201929,31.854495 39.5402513,31.854495 C38.1262451,31.854495 37.4093153,32.2771087 37.4093153,33.1112649 C37.4093153,33.6351035 37.759114,33.9625027 38.3046109,33.9625027 C39.320603,33.9625027 40.0542349,33.1093669 40.0970931,31.888342 L40.0970931,31.888342 Z" id="Fill-361" fill="#006"/><path d="M61.6607671,35.4596816 C60.9807079,35.6466313 60.4503374,35.7282438 59.8771087,35.7282438 C58.6071187,35.7282438 57.9135087,35.0766088 57.9135087,33.9163188 C57.8734867,33.5974605 58.1838937,32.1246388 58.2544837,31.7143618 C58.3244435,31.3028195 59.4245763,25.3033486 59.4245763,25.3033486 L61.8920754,25.3033486 L61.5189568,27.2886211 L62.7845349,27.2886211 L62.4407237,29.3140673 L61.1694732,29.3140673 C61.1694732,29.3140673 60.4720817,32.8306822 60.4720817,33.0995607 C60.4720817,33.5256541 60.729231,33.7110221 61.3201072,33.7110221 C61.6024673,33.7110221 61.8208552,33.6844506 61.9894519,33.6338382 L61.6607671,35.4596816" id="Fill-362" fill="#006"/><path d="M72.6863602,27.0978755 C70.8778062,27.0978755 69.4647454,27.8459905 68.6438213,29.0935869 L69.3563393,27.2424373 C68.0434911,26.7587723 67.1970411,27.4493156 66.4322109,28.4305641 C66.4322109,28.4305641 66.3039514,28.5934728 66.176007,28.7424632 L66.176007,27.2876722 L63.8591419,27.2876722 C63.5452684,29.855304 62.9903174,32.4593135 62.5563779,35.0326392 L62.4514383,35.5922229 L64.9438331,35.5922229 C65.1804987,34.2864222 65.3746212,33.2267245 65.5681135,32.3814969 C66.0975386,30.0628149 66.9887376,29.3542409 68.3264814,29.668038 C68.0176501,30.3339078 67.8484231,31.1057473 67.8484231,31.9595158 C67.8484231,34.0324111 68.9690396,35.7282438 71.7532485,35.7282438 C74.5623529,35.7282438 76.5965429,34.2218914 76.5965429,30.786889 C76.5965429,28.715259 75.2408364,27.0978755 72.6863602,27.0978755 L72.6863602,27.0978755 Z M71.9609218,33.7135528 C71.0807525,33.7271549 70.5469155,32.9856828 70.5469155,31.8760052 C70.5469155,30.5613474 71.3256116,29.0755562 72.5770087,29.0755562 C73.5866981,29.0755562 73.9324001,29.8793449 73.9324001,30.7356439 C73.9324001,32.6057732 73.1688304,33.7135528 71.9609218,33.7135528 L71.9609218,33.7135528 Z" id="Fill-363" fill="#006"/><polyline id="Fill-364" fill="#006" points="33.8356957 35.5922229 31.3533853 35.5922229 32.8285275 27.7903169 29.4323284 35.5922229 27.1696663 35.5922229 26.7562105 27.8361844 25.2763413 35.5922229 23.0243937 35.5922229 24.9422992 25.4437981 28.8212836 25.4437981 29.1442959 31.1013187 31.6017108 25.4437981 35.7920476 25.4437981 33.8356957 35.5922229"/><path d="M50.668263,34.7675566 C49.816771,34.9943636 48.9923804,35.1050783 48.1216652,35.1031803 C45.3424985,35.1006497 43.895088,33.829645 43.895088,31.3999321 C43.895088,28.5608911 45.7373614,26.472812 48.2382648,26.472812 C50.2844298,26.472812 51.5906602,27.6435408 51.5906602,29.4776087 C51.5906602,30.0862232 51.5021076,30.6780723 51.2859257,31.5179223 L46.3439943,31.5179223 C46.1678344,32.7035185 47.0303562,33.2254591 48.499826,33.2254591 C49.3799953,33.2254591 50.1763389,33.0666627 51.0577687,32.7101613 L50.668263,34.7675566 L50.668263,34.7675566 Z M49.339343,29.8435999 C49.339343,29.6642421 49.6141398,28.3903905 48.1843769,28.3625536 C47.3946511,28.3625536 46.8283553,28.8895556 46.5986226,29.8435999 L49.339343,29.8435999 L49.339343,29.8435999 Z" id="Fill-366" fill="#FFF"/><path d="M52.3432002,29.2862305 C52.3432002,30.3351731 52.9309251,31.0592472 54.2677235,31.5992185 C55.2903334,32.019618 55.4507366,32.1410878 55.4507366,32.5156198 C55.4507366,33.0369278 54.9991495,33.2754389 53.9973386,33.2694287 C53.2435381,33.2637348 52.5562308,33.1716834 51.7460213,32.9461418 L51.3864534,34.8583427 C52.1077951,35.0269453 53.1190601,35.0819863 54.0140407,35.1031803 C56.6829105,35.1031803 57.9157147,34.2256873 57.9157147,32.3289865 C57.9157147,31.1895742 57.401416,30.5186431 56.1339471,30.0194781 C55.0744666,29.59465 54.9499886,29.501966 54.9499886,29.1182605 C54.9499886,28.6665445 55.3703774,28.437207 56.1884652,28.437207 C56.6848013,28.437207 57.3635999,28.4837071 58.0086792,28.5621564 L58.3701379,26.6388841 C57.7133987,26.5462001 56.7172601,26.473761 56.14088,26.473761 C53.3128675,26.473761 52.3343765,27.7507759 52.3432002,29.2862305" id="Fill-367" fill="#FFF"/><path d="M42.540327,34.9658941 L40.4664302,34.9658941 L40.5165365,34.094095 C39.8840625,34.7811587 39.0423396,35.1012823 37.8993486,35.1012823 C36.5471087,35.1012823 35.6196693,34.1731769 35.6196693,32.8379577 C35.6196693,30.809032 37.2306343,29.6383032 40.0000319,29.6383032 C40.2845978,29.6383032 40.6463717,29.6601298 41.0188601,29.7006197 C41.0957528,29.4295269 41.1162365,29.3134347 41.1162365,29.1657096 C41.1162365,28.6089729 40.6807213,28.4052579 39.5156709,28.4052579 C38.3663772,28.4100028 37.5911476,28.5811361 36.8720118,28.7753613 L37.225277,26.9131402 C38.4697412,26.5955472 39.2837323,26.472812 40.2061295,26.472812 C42.3506163,26.472812 43.4828928,27.316458 43.4828928,28.9031576 C43.5014857,29.3270367 43.354003,30.1751113 43.2808919,30.5483779 C43.1961208,31.088982 42.6020933,34.2256873 42.540327,34.9658941 L42.540327,34.9658941 Z M40.720113,31.2632785 C40.4579215,31.2360743 40.3432128,31.2291151 40.1629561,31.2291151 C38.7495802,31.2291151 38.0323352,31.6510963 38.0323352,32.4846197 C38.0323352,33.0094073 38.3827642,33.3374391 38.9273157,33.3374391 C39.943938,33.3374391 40.6775699,32.4833544 40.720113,31.2632785 L40.720113,31.2632785 Z" id="Fill-368" fill="#FFF"/><path d="M62.283787,34.8343018 C61.6034127,35.0215677 61.0733573,35.1031803 60.4998135,35.1031803 C59.2298234,35.1031803 58.5368438,34.4512289 58.5368438,33.290939 C58.4965066,32.9720807 58.8069136,31.499259 58.8771885,31.088982 C58.9477785,30.6774396 60.0479113,24.6779688 60.0479113,24.6779688 L62.5150954,24.6779688 L62.1422918,26.6626087 L63.40787,26.6626087 L63.0637436,28.6886875 L61.7928082,28.6886875 C61.7928082,28.6886875 61.0947864,32.2053024 61.0947864,32.4729156 C61.0947864,32.9005906 61.3522509,33.0846933 61.9431272,33.0846933 C62.2254872,33.0846933 62.4435599,33.0593871 62.613102,33.008142 L62.283787,34.8343018" id="Fill-369" fill="#FFF"/><path d="M74.5560502,30.1089988 C74.5560502,31.9807097 73.7915352,33.0884893 72.5836265,33.0884893 C71.7034573,33.1011424 71.1699354,32.3606193 71.1699354,31.2509417 C71.1699354,29.9362839 71.9486315,28.4501764 73.1997135,28.4501764 C74.209718,28.4501764 74.5560502,29.2539651 74.5560502,30.1089988 L74.5560502,30.1089988 Z M77.2195628,30.1615092 C77.2195628,28.0901955 75.8635412,26.472812 73.3096953,26.472812 C70.371701,26.472812 68.471443,28.4384723 68.471443,31.3344522 C68.471443,33.4070312 69.5920595,35.1031803 72.3765835,35.1031803 C75.185688,35.1031803 77.2195628,33.5968279 77.2195628,30.1615092 L77.2195628,30.1615092 Z" id="Fill-370" fill="#FFF"/><path d="M64.4818466,26.6616597 C64.1682883,29.2299241 63.6130222,31.8336173 63.1793978,34.4066267 L63.0747733,34.9671594 L65.566853,34.9671594 C66.4649849,29.9973351 66.7665681,28.5817687 68.6488635,29.0799848 L69.5542434,26.7287211 C68.2410801,26.2450561 67.3962058,26.9359158 66.6313756,27.9177969 C66.70039,27.4758871 66.8302252,27.0491611 66.7990269,26.6616597 L64.4818466,26.6616597" id="Fill-371" fill="#FFF"/><polyline id="Fill-372" fill="#FFF" points="34.4587157 34.9671594 31.9770354 34.9671594 33.4518625 27.1652533 30.0553483 34.9671594 27.7926862 34.9671594 27.3789153 27.2108045 25.899046 34.9671594 23.6474136 34.9671594 25.565004 24.8184182 29.4443035 24.8184182 29.6491406 31.1013187 32.3797767 24.8184182 36.4150675 24.8184182 34.4587157 34.9671594"/></g></g></svg>

<svg width="100" height="60" xmlns="http://www.w3.org/2000/svg"><g fill="none" fill-rule="evenodd"><rect fill="#006" width="100" height="60" rx="4"/><path d="M83.656 29.984C83.656 41.039 74.731 50 63.717 50c-11.01 0-19.938-8.96-19.938-20.016 0-11.056 8.927-20.017 19.938-20.017 11.014 0 19.94 8.961 19.94 20.017" fill="#C00"/><path d="M48.315 42.695a19.871 19.871 0 0 1-1.519-2.12h7.067c.424-.68.807-1.387 1.149-2.12h-9.364a19.911 19.911 0 0 1-.844-2.119h11.05a20.044 20.044 0 0 0 1.026-6.352 20.19 20.19 0 0 0-.448-4.24H44.228c.154-.721.349-1.428.578-2.119h11.047a20.171 20.171 0 0 0-.843-2.119h-9.36a20.49 20.49 0 0 1 1.148-2.12h7.063c-.461-.74-.97-1.446-1.52-2.117h-4.024a20.165 20.165 0 0 1 2.013-2.119 19.824 19.824 0 0 0-13.388-5.183c-11.013 0-19.94 8.961-19.94 20.017C17.002 41.039 25.929 50 36.942 50c5.152 0 9.85-1.962 13.388-5.182a20.1 20.1 0 0 0 2.014-2.123h-4.03" fill="#06C"/><path d="M50.046 35.393a9.655 9.655 0 0 1-2.548.335c-2.779-.002-4.226-1.273-4.226-3.703 0-2.839 1.842-4.927 4.344-4.927 2.045 0 3.351 1.17 3.351 3.005 0 .609-.088 1.202-.304 2.04H45.72c-.176 1.187.688 1.708 2.157 1.708.88 0 1.676-.159 2.558-.515l-.39 2.057zm-1.33-4.924c0-.18.275-1.454-1.155-1.481-.79 0-1.356.527-1.585 1.48h2.74zm3.004-.557c0 1.049.588 1.773 1.925 2.313 1.022.42 1.183.541 1.183.917 0 .52-.452.759-1.454.752a8.253 8.253 0 0 1-2.251-.322l-.36 1.912c.722.168 1.732.223 2.628.244 2.67 0 3.901-.877 3.901-2.773 0-1.14-.514-1.81-1.781-2.31-1.06-.425-1.184-.517-1.184-.902 0-.451.42-.68 1.238-.68.497 0 1.176.046 1.82.124l.362-1.923a19.538 19.538 0 0 0-2.23-.165c-2.827 0-3.806 1.278-3.797 2.813m-9.803 5.679h-2.073l.05-.872c-.633.688-1.475 1.009-2.618 1.009-1.353 0-2.279-.929-2.279-2.264 0-2.03 1.61-3.2 4.38-3.2.285 0 .647.021 1.019.063.076-.271.097-.389.097-.536 0-.555-.436-.76-1.601-.76a9.538 9.538 0 0 0-2.644.37l.355-1.862c1.244-.318 2.058-.441 2.98-.441 2.144 0 3.277.844 3.277 2.43.018.424-.129 1.274-.203 1.646-.084.54-.678 3.677-.74 4.417zm-1.82-3.703a4.909 4.909 0 0 0-.557-.034c-1.414 0-2.13.423-2.13 1.257 0 .524.35.852.895.852 1.016 0 1.75-.854 1.792-2.075zM61.66 35.46c-.68.187-1.21.268-1.783.268-1.27 0-1.963-.651-1.963-1.812-.04-.319.27-1.791.34-2.202.07-.411 1.17-6.41 1.17-6.41h2.468l-.373 1.985h1.266l-.344 2.025h-1.272s-.697 3.517-.697 3.786c0 .426.257.611.848.611.282 0 .5-.027.67-.077l-.33 1.826m11.026-8.362c-1.808 0-3.221.748-4.042 1.996l.712-1.852c-1.313-.483-2.159.207-2.924 1.189 0 0-.128.162-.256.311v-1.454h-2.317c-.314 2.567-.869 5.171-1.303 7.745l-.105.56h2.493c.236-1.307.43-2.366.624-3.212.53-2.318 1.42-3.027 2.758-2.713-.308.666-.478 1.438-.478 2.292 0 2.072 1.121 3.768 3.905 3.768 2.81 0 4.844-1.506 4.844-4.941 0-2.072-1.356-3.69-3.91-3.69zm-.725 6.616c-.88.013-1.414-.728-1.414-1.838 0-1.315.779-2.8 2.03-2.8 1.01 0 1.355.803 1.355 1.66 0 1.87-.763 2.978-1.971 2.978zm-38.125 1.878h-2.483l1.476-7.802-3.397 7.802H27.17l-.414-7.756-1.48 7.756h-2.252l1.918-10.148h3.88l.322 5.657 2.458-5.657h4.19l-1.956 10.148" fill="#006"/><path d="M50.668 34.768a9.636 9.636 0 0 1-2.546.335c-2.78-.002-4.227-1.273-4.227-3.703 0-2.84 1.842-4.927 4.343-4.927 2.046 0 3.353 1.17 3.353 3.005 0 .608-.089 1.2-.305 2.04h-4.942c-.176 1.186.686 1.707 2.156 1.707.88 0 1.676-.158 2.558-.515l-.39 2.058zm-1.329-4.924c0-.18.275-1.454-1.155-1.481-.79 0-1.356.527-1.585 1.48h2.74zm3.004-.558c0 1.05.588 1.773 1.925 2.313 1.022.42 1.183.542 1.183.917 0 .52-.452.76-1.454.753a8.26 8.26 0 0 1-2.251-.323l-.36 1.912c.722.169 1.733.224 2.628.245 2.669 0 3.902-.877 3.902-2.774 0-1.14-.515-1.81-1.782-2.31-1.06-.424-1.184-.517-1.184-.9 0-.452.42-.682 1.238-.682.497 0 1.176.047 1.82.125l.362-1.923a19.257 19.257 0 0 0-2.23-.165c-2.827 0-3.806 1.277-3.797 2.812m-9.803 5.68h-2.074l.05-.872c-.632.687-1.474 1.007-2.617 1.007-1.352 0-2.28-.928-2.28-2.263 0-2.029 1.612-3.2 4.381-3.2.285 0 .646.022 1.019.063.077-.271.097-.388.097-.535 0-.557-.435-.76-1.6-.76a9.532 9.532 0 0 0-2.644.37l.353-1.863c1.245-.317 2.059-.44 2.981-.44 2.145 0 3.277.843 3.277 2.43.018.424-.129 1.272-.202 1.645-.085.541-.679 3.678-.74 4.418zm-1.82-3.703a4.637 4.637 0 0 0-.557-.034c-1.413 0-2.13.422-2.13 1.256 0 .524.35.852.894.852 1.017 0 1.75-.854 1.793-2.074zm21.564 3.571c-.68.188-1.21.27-1.784.27-1.27 0-1.963-.653-1.963-1.813-.04-.319.27-1.792.34-2.202.07-.412 1.17-6.411 1.17-6.411h2.468l-.373 1.985h1.266l-.344 2.026h-1.271s-.698 3.516-.698 3.784c0 .428.257.612.848.612.282 0 .5-.026.67-.077l-.33 1.826m12.273-4.725c0 1.872-.764 2.98-1.972 2.98-.88.012-1.414-.728-1.414-1.838 0-1.315.779-2.8 2.03-2.8 1.01 0 1.356.803 1.356 1.658zm2.664.053c0-2.072-1.356-3.69-3.91-3.69-2.938 0-4.839 1.966-4.839 4.862 0 2.073 1.121 3.77 3.906 3.77 2.809 0 4.843-1.507 4.843-4.942zm-12.738-3.5c-.314 2.568-.869 5.172-1.303 7.745l-.104.56h2.492c.898-4.97 1.2-6.385 3.082-5.887l.905-2.351c-1.313-.484-2.158.207-2.923 1.189.07-.442.2-.869.168-1.256h-2.317m-30.023 8.305h-2.482l1.475-7.802-3.397 7.802h-2.262l-.414-7.756-1.48 7.756h-2.252l1.918-10.149h3.88l.204 6.283 2.73-6.283h4.036l-1.956 10.15" fill="#FFF"/></g></svg>
